src/assets/icons/public.svg

<svg widh="100%" height="100%" viewBox="0 0 24 24" fill="current"
  xmlns="http://www.w3.org/2000/svg">
  <path fill-rule="evenodd" clip-rule="evenodd" d="M12 2.83331C6.93999 2.83331 2.83333 6.93997 2.83333 12C2.83333 17.06 6.93999 21.1667 12 21.1667C17.06 21.1667 21.1667 17.06 21.1667 12C21.1667 6.93997 17.06 2.83331 12 2.83331ZM11.0833 19.2692C7.46249 18.82 4.66666 15.74 4.66666 12C4.66666 11.4317 4.73999 10.8908 4.85916 10.3592L9.24999 14.75V15.6667C9.24999 16.675 10.075 17.5 11.0833 17.5V19.2692ZM17.4083 16.9408C17.17 16.1983 16.4917 15.6667 15.6667 15.6667H14.75V12.9167C14.75 12.4125 14.3375 12 13.8333 12H8.33333V10.1667H10.1667C10.6708 10.1667 11.0833 9.75414 11.0833 9.24997V7.41664H12.9167C13.925 7.41664 14.75 6.59164 14.75 5.58331V5.20747C17.4358 6.29831 19.3333 8.92914 19.3333 12C19.3333 13.9067 18.6 15.6392 17.4083 16.9408Z"/>
</svg>

<svg xmlns="http://www.w3.org/2000/svg" fill="currentColor" viewBox="0 0 24 24">
  <path fill-rule="evenodd" d="M12 2.833C6.94 2.833 2.833 6.94 2.833 12S6.94 21.167 12 21.167 21.167 17.06 21.167 12 17.06 2.833 12 2.833Zm-.917 16.436A7.323 7.323 0 0 1 4.667 12c0-.568.073-1.11.192-1.64l4.391 4.39v.917c0 1.008.825 1.833 1.833 1.833v1.77Zm6.325-2.328a1.818 1.818 0 0 0-1.741-1.274h-.917v-2.75a.92.92 0 0 0-.917-.917h-5.5v-1.833h1.834a.92.92 0 0 0 .916-.917V7.417h1.834a1.839 1.839 0 0 0 1.833-1.834v-.376C17.436 6.298 19.333 8.93 19.333 12c0 1.907-.733 3.64-1.925 4.94Z" clip-rule="evenodd"/>
</svg>
